packages/calcite-ui-icons/icons/line-and-circle-intersection-24.svg

<?xml version="1.0" encoding="UTF-8"?><svg id="icons" xmlns="http://www.w3.org/2000/svg" viewBox="0 0 24 24"><defs><style>.cls-1{fill:none;}</style></defs><rect class="cls-1" x="0" width="24" height="24"/><path d="M18.44373,1.84375L20.276.01093l.70703.70703-1.83228,1.83282-.70703-.70703ZM19.16235,4.67322l-.08087,1.15887c2.37036,1.72748,3.91852,4.51654,3.91852,7.66791,0,5.23828-4.26172,9.5-9.5,9.5-3.99359,0-7.41302-2.48029-8.81567-5.9787L14.65137,7.05139l-.70697-.70697L4.33392,15.95758c-.21088-.7854-.33392-1.60651-.33392-2.45758,0-5.23828,4.26172-9.5,9.5-9.5.13696,0,.26801.02203.40338.02826l.0481-1.00977c-.15039-.00659-.29944-.01849-.45148-.01849C7.70996,3,3.01,7.70996,3.01,13.5c0,1.1405.17866,2.23633.51643,3.26526l-2.51636,2.51709.70703.70703,2.20569-2.2063c1.64288,3.65869,5.31348,6.21692,9.57721,6.21692,5.79004,0,10.5-4.70996,10.5-10.5,0-3.70404-1.93201-6.95862-4.83765-8.82678ZM18,3v3h-3v-3h3ZM17,4h-1v1h1v-1Z"/></svg>

<svg xmlns="http://www.w3.org/2000/svg" viewBox="0 0 24 24"><path d="M0 0h24v24H0z" style="fill:none"/><path d="M18.444 1.844 20.276.01l.707.707-1.832 1.833zm.718 2.83-.08 1.158C21.451 7.56 23 10.35 23 13.5c0 5.238-4.262 9.5-9.5 9.5-3.994 0-7.413-2.48-8.816-5.979l9.967-9.97-.707-.707-9.61 9.614A9.5 9.5 0 0 1 4 13.5C4 8.262 8.262 4 13.5 4c.137 0 .268.022.403.028l.048-1.01C13.801 3.012 13.652 3 13.5 3 7.71 3 3.01 7.71 3.01 13.5c0 1.14.179 2.236.516 3.265L1.01 19.282l.707.707 2.206-2.206C5.566 21.442 9.236 24 13.5 24 19.29 24 24 19.29 24 13.5c0-3.704-1.932-6.959-4.838-8.827M18 3v3h-3V3zm-1 1h-1v1h1z"/></svg>
